src/components/stable/gux-icon/icons/cjv-offer-opened.svg

<svg viewBox="0 0 40 40" version="1.1" xmlns="http://www.w3.org/2000/svg" xmlns:xlink="http://www.w3.org/1999/xlink">
    <title>Offer Opened</title>
    <g stroke="none" stroke-width="1" fill="none" fill-rule="evenodd">
        <g id="cjv-offer-opened">
            <circle id="Oval" fill="#FFFFFF" cx="20" cy="20" r="20"/>
            <g fill="#A1D318" id="Shape">
                <path d="M40,20 C40,31.0457 31.0457,40 20,40 C8.9543,40 0,31.0457 0,20 C0,8.9543 8.9543,0 20,0 C31.0457,0 40,8.9543 40,20 Z M9.4819,16.6836 L9.4825,12.5845 L13.5018,11.3195 L15.9819,8 L20,9.2719 L24.0182,8 L26.4982,11.3195 L30.5175,12.5845 L30.5181,16.6837 L33,20 L30.518,23.3164 L30.5175,27.4155 L26.4982,28.6805 L24.0181,32 L20,30.7281 L15.9818,32 L13.5018,28.6805 L9.4825,27.4155 L9.4819,23.3163 L7,20 L9.4819,16.6836 Z M26.5021,17.6771 L19.071,24.5694 C18.739,24.8773 18.341,25 17.8767,25 C17.4125,25 17.0144,24.8773 16.6825,24.5694 L13.4979,21.6157 C12.834,21 12.834,20.0162 13.4979,19.4004 C14.1618,18.7847 15.2225,18.7847 15.8863,19.4004 L17.8767,21.2465 L24.1137,15.4618 C24.7775,14.8461 25.8382,14.8461 26.5021,15.4618 C27.166,16.0775 27.166,17.0613 26.5021,17.6771 Z"/>
            </g>
        </g>
    </g>
</svg>

<svg viewBox="0 0 40 40" xmlns="http://www.w3.org/2000/svg"><g fill="none" fill-rule="evenodd"><circle fill="#FFF" cx="20" cy="20" r="20"/><path d="M40 20c0 11.046-8.954 20-20 20S0 31.046 0 20 8.954 0 20 0s20 8.954 20 20zM9.482 16.684v-4.1l4.02-1.264L15.982 8 20 9.272 24.018 8l2.48 3.32 4.02 1.264v4.1L33 20l-2.482 3.316v4.1l-4.02 1.264-2.48 3.32L20 30.728 15.982 32l-2.48-3.32-4.02-1.264v-4.1L7 20l2.482-3.316zm17.02.993l-7.431 6.892c-.332.308-.73.431-1.194.431-.464 0-.863-.123-1.194-.43l-3.185-2.954a1.481 1.481 0 010-2.216 1.775 1.775 0 012.388 0l1.99 1.847 6.238-5.785a1.775 1.775 0 012.388 0 1.48 1.48 0 010 2.215z" fill="#A1D318"/></g></svg>
